src/svgs/estate.svg

<svg xmlns="http://www.w3.org/2000/svg" viewBox="0 0 24 24" width="512" height="512" aria-labelledby="egestate-desc egestate-title"><title id="egestate-title">Estate Icon</title><desc id="egestate-desc">A picture depicting a big house.</desc><path d="M12 2L7 6.5V5H5v3.3L2 11h2v11h6v-7h4v7h6V11h2zM8 19H6v-4h2zm4-7a2 2 0 112-2 2 2 0 01-2 2zm6 7h-2v-4h2z"/></svg>

<svg xmlns="http://www.w3.org/2000/svg" viewBox="0 0 24 24"><path d="M12,2,7,6.5V5H5V8.3L2,11H4V22h6V15h4v7h6V11h2ZM8,19H6V15H8Zm4-7a2,2,0,1,1,2-2A2,2,0,0,1,12,12Zm6,7H16V15h2Z"/></svg>
